stool.svg

<svg fill="currentColor" viewBox="0 0 24 24"><path d="M20 6c0-2.21-1.79-4-4-4H8C5.78 2 4 3.79 4 6v2h3L4 22h2l1.5-7H11v7h2v-7h3.5l1.5 7h2L17 8h3zM7.93 13 9 8h2v5zm8.14 0H13V8h2z"/></svg>

<svg  viewBox="0 0 24 24" fill="currentColor"><path  d="M20 6C20 3.79 18.21 2 16 2H8C5.78 2 4 3.79 4 6V8H7L4 22H6L7.5 15H11V22H13V15H16.5L18 22H20L17 8H20V6M7.93 13L9 8H11V13H7.93M16.07 13H13V8H15L16.07 13Z"/></svg>
